packages/icons/web/transactions_large.svg

<svg width="24" height="24" viewBox="0 0 24 24" fill="none" xmlns="http://www.w3.org/2000/svg">
<path fill-rule="evenodd" clip-rule="evenodd" d="M16 10H8V8H16V10Z" fill="#212933"/>
<path fill-rule="evenodd" clip-rule="evenodd" d="M16 13H8V11H16V13Z" fill="#212933"/>
<path fill-rule="evenodd" clip-rule="evenodd" d="M16 16H8V14H16V16Z" fill="#212933"/>
<path fill-rule="evenodd" clip-rule="evenodd" d="M3 5C3 3.89543 3.89543 3 5 3H19C20.1046 3 21 3.89543 21 5V19C21 20.1046 20.1046 21 19 21H5C3.89543 21 3 20.1046 3 19V5ZM19 5H5V19H19V5Z" fill="#212933"/>
</svg>

<svg width="24" height="24" fill="none" xmlns="http://www.w3.org/2000/svg">
    <path fill-rule="evenodd" clip-rule="evenodd" d="M16 10H8V8h8v2zm0 3H8v-2h8v2zm0 3H8v-2h8v2z" fill="currentColor"/>
    <path fill-rule="evenodd" clip-rule="evenodd" d="M3 5a2 2 0 012-2h14a2 2 0 012 2v14a2 2 0 01-2 2H5a2 2 0 01-2-2V5zm16 0H5v14h14V5z" fill="currentColor"/>
</svg>
